X:1
T:How Lovely Is You Dwelling
T:Text: Psalm 84:1-7; vers. Psalter, 1912, alt. Tune: Justin H. Knecht, 1799, and Edward Husband, 1871
T:76 76 D ST. EDITH www.hymnary.org/text/how_lovely_is_your_dwelling_o_lord
T:How Lovely Is You Dwelling
T:This hymn is in the public domain. You may freely use this score for personal and congregational worship. If you reproduce the score, please credit Hymnary.org as the source. 
T:This hymn is in the public domain. You may freely use this score for personal and congregational worship. If you reproduce the score, please credit Hymnary.org as the source. 
Z:This hymn is in the public domain. You may freely use this score for personal and congregational worship. If you reproduce the score, please credit Hymnary.org as the source.
%%score ( 1 2 ) ( 3 4 )
L:1/8
M:4/4
K:Eb
V:1 treble nm="SOPRANO ALTO" snm="S. A."
V:2 treble 
V:3 bass nm="TENOR BASS" snm="T. B."
V:4 bass 
V:1
"^1""^2""^3" E2 | E2 DE F2 F2 | F2 E4 G2 | G2 FG A2 F2 | D6 | E2 | E2 DF G2 B2 | B4 A2 G2 | %8
w: How|love- ly * is your|dwell- ing, O|Lord of * hosts, to|me;|my|soul is * long- ing,|faint- ing, the|
w: Be-|neath your * care the|spar- row finds|place for * peace- ful|rest;|to|keep her * young in|safe- ty the|
w: Blest|they who * love and|serve you, whose|joy and * strength you|are.|For-|e- ver * they will|praise you, your|
 F2 GA G3 F | E6 | B2 | e3 d c2 G2 | B4 A2 G2 | F2 e2 e2 dc | B6 |1 G2 | G2 FG E2 GB | B4 A2 G2 | %18
w: courts of * God to|see.|The|beau- ty of your|dwell- ing will|bring me joy a- *|new.|My|heart and * flesh are *|cry- ing, O|
w: swal- low * finds a|nest.|So,|Lord, my King Al-|might- y, your|love will shel- ter *|me;|be-|neath your * wings of *|mer- cy my|
w: ways are * in their|heart.|Though|tried, their tears like|show- ers shall|fill the springs of *|peace;|and|all the * way to *|Zi- on their|
 F2 E2 D2 EF | E6 x2 |] %20
w: liv- ing God, for *|you.|
w: dwell- ing place will *|be.|
w: strength shall still in- *|crease.|
V:2
 B,2 | B,2 B,2 D2 D2 | D2 E4 B,2 | E2 E2 E2 C2 | B,6 | B,2 | B,2 B,2 E2 E2 | E4 E2 E2 | %8
 C2 C2 D2 D2 | E6 | E2 | G3 F G2 G2 | G4 F2 E2 | E2 EF G2 FE | D6 |1 E2 | E2 E2 E2 E2 | E4 E2 E2 | %18
 C2 C2 B,2 B,2 | B,6 x2 |] %20
V:3
 G,2 | G,2 F,G, A,2 A,2 | A,2 G,4 E2 | D2 _D2 C2 A,2 | F,6 | G,2 | G,2 F,G, B,2 _D2 | _D4 C2 B,2 | %8
 A,2 G,F, B,3 A, | G,6 | G,2 | G,3 =B, C2 C2 | C4 C2 B,2 | =A,2 B,2 A,2 A,2 | B,6 |1 B,2 | %16
 B,2 A,B, G,2 B,_D | _D4 C2 B,2 | A,2 G,2 F,2 G,A, | G,6 x2 |] %20
V:4
 E,2 | E,2 E,2 E,2 E,2 | E,2 E,4 E,2 | E,2 E,2 A,,2 A,,2 | B,,6 | E,2 | E,2 E,2 E,2 E,2 | %7
 G,4 A,2 E,2 | A,,2 A,,2 B,,2 B,,2 | E,6 | E,2 | C,3 D, E,2 E,2 | F,4 F,2 F,2 | F,2 G,2 F,2 F,2 | %14
 B,,6 |1 E,2 | E,2 E,2 E,2 E,2 | A,4 A,2 E,2 | A,,2 A,,2 B,,2 B,,2 | E,6 x2 |] %20

